assets/img/icons/sms.svg

<svg fill="none" height="25" viewBox="0 0 24 25" width="24" xmlns="http://www.w3.org/2000/svg" xmlns:xlink="http://www.w3.org/1999/xlink"><linearGradient id="a" gradientUnits="userSpaceOnUse" x1="12.0073" x2="12.0073" y1="14.6736" y2="21.6388"><stop offset="0" stop-color="#4c98ed"/><stop offset="1" stop-color="#e5a7de"/></linearGradient><path d="m22.2573 14.6736h-20.49998v6.9652l5.56658-3.9073h14.9334z" fill="url(#a)"/><g clip-rule="evenodd" fill="#2e3c47" fill-rule="evenodd"><path d="m.942627 2.85493c0-.44183.358173-.8.800003-.8h20.49997c.4419 0 .8.35817.8.8v15.46867c0 .4418-.3581.8-.8.8h-14.68065l-5.35971 3.7621c-.24431.1715-.56376.1927-.8286.055-.26484-.1376-.431013-.4113-.431013-.7098zm1.600003.8v17.03707l4.30696-3.0232c.13464-.0945.29513-.1452.45962-.1452h14.13339v-13.86867z"/><path d="m7.29907 7.5478c0-.44183.35817-.8.8-.8h7.87503c.4418 0 .8.35817.8.8s-.3582.8-.8.8h-7.87503c-.44183 0-.8-.35817-.8-.8z"/><path d="m7.26978 11.1992c0-.4419.35817-.8.8-.8h7.87502c.4418 0 .8.3581.8.8 0 .4418-.3582.8-.8.8h-7.87502c-.44183 0-.8-.3582-.8-.8z"/></g></svg>

<svg width="24" height="25" viewBox="0 0 24 25" fill="none" xmlns="http://www.w3.org/2000/svg">
<path d="M22.2573 14.6736H1.75732V21.6388L7.3239 17.7315H22.2573V14.6736Z" fill="url(#paint0_linear_5018_30028)"/>
<path fill-rule="evenodd" clip-rule="evenodd" d="M0.942627 2.85493C0.942627 2.4131 1.3008 2.05493 1.74263 2.05493H22.2426C22.6845 2.05493 23.0426 2.4131 23.0426 2.85493V18.3236C23.0426 18.7654 22.6845 19.1236 22.2426 19.1236H7.56195L2.20224 22.8857C1.95793 23.0572 1.63848 23.0784 1.37364 22.9407C1.1088 22.8031 0.942627 22.5294 0.942627 22.2309V2.85493ZM2.54263 3.65493V20.692L6.84959 17.6688C6.98423 17.5743 7.14472 17.5236 7.30921 17.5236H21.4426V3.65493H2.54263Z" fill="#2E3C47"/>
<path fill-rule="evenodd" clip-rule="evenodd" d="M7.29907 7.5478C7.29907 7.10597 7.65724 6.7478 8.09907 6.7478H15.9741C16.4159 6.7478 16.7741 7.10597 16.7741 7.5478C16.7741 7.98963 16.4159 8.3478 15.9741 8.3478H8.09907C7.65724 8.3478 7.29907 7.98963 7.29907 7.5478Z" fill="#2E3C47"/>
<path fill-rule="evenodd" clip-rule="evenodd" d="M7.26978 11.1992C7.26978 10.7573 7.62795 10.3992 8.06978 10.3992H15.9448C16.3866 10.3992 16.7448 10.7573 16.7448 11.1992C16.7448 11.641 16.3866 11.9992 15.9448 11.9992H8.06978C7.62795 11.9992 7.26978 11.641 7.26978 11.1992Z" fill="#2E3C47"/>
<defs>
<linearGradient id="paint0_linear_5018_30028" x1="12.0073" y1="14.6736" x2="12.0073" y2="21.6388" gradientUnits="userSpaceOnUse">
<stop stop-color="#4C98ED"/>
<stop offset="1" stop-color="#E5A7DE"/>
</linearGradient>
</defs>
</svg>
